src/lib/assets/torah.svg

<svg clip-rule="evenodd" fill-rule="evenodd" stroke-linejoin="round" stroke-miterlimit="2" viewBox="0 0 53 91" xmlns="http://www.w3.org/2000/svg"><path d="m28.607 18.18v-9.05c0-2.45 1.973-4.433 4.423-4.433s4.433 1.995 4.433 4.433v7.145c6.331-1.02 13.178-1.663 25.064-.042v-7.103c0-2.45 1.995-4.433 4.433-4.433 2.439 0 4.423 1.994 4.423 4.433v8.951c2.987 1.514 4.971 4.589 4.96 8.079v47.67c0 3.491-1.974 6.565-4.96 8.079v8.951c0 2.45-1.973 4.433-4.423 4.433s-4.433-1.995-4.433-4.433v-7.102c-5.204.71-9.44.985-13.087.985-4.696 0-8.414-.458-11.977-1.028v7.145c0 2.45-1.995 4.433-4.433 4.433-2.439 0-4.423-1.994-4.423-4.433v-9.05c-2.986-1.504-4.96-4.569-4.96-8.08v-47.47c0-3.501 1.974-6.575 4.96-8.08zm.212.603-.208-.209-.004.006c0 .119.011.218.031.299.06-.033.12-.065.181-.096zm.421 63.26-.259-.055c-.101-.045-.2-.092-.299-.141.168.36.558.196.558.196zm39.377.763c-1.152.2-2.253.381-3.324.547v7.517c0 .92.754 1.667 1.667 1.667.912 0 1.657-.747 1.657-1.667zm4.97-8.966v-47.69c0-3.062-2.19-5.67-5.198-6.206-8.053-1.432-14.038-1.941-18.929-1.941-5.906 0-10.224.757-14.681 1.521-1.012.18-2.025.351-3.067.521-3.062.5-5.289 3.107-5.289 6.215v47.48c0 3.108 2.227 5.715 5.289 6.215 1.041.17 2.064.351 3.065.521 8.137 1.401 15.828 2.73 33.612-.43 3.008-.536 5.198-3.144 5.198-6.206zm-10.226-31.702c.238.422.238.952 0 1.374-.001.002-.002.004-.004.007l-3.774 6.481 3.774 6.481c.002.003.003.005.004.007.238.42.238.949.003 1.37-.243.443-.704.705-1.204.705h-7.566l-3.397 5.836c-.002.003-.004.007-.006.01-.256.421-.697.674-1.191.674-.5 0-.96-.265-1.197-.684l-3.397-5.836h-7.566c-.496 0-.955-.273-1.196-.693-.255-.425-.245-.958-.005-1.382.001-.002.002-.004.004-.007l3.774-6.481-3.774-6.481c-.002-.003-.003-.005-.004-.007-.238-.42-.238-.949-.003-1.37.243-.443.704-.705 1.204-.705h7.566l3.397-5.836.001-.002c.25-.426.718-.657 1.196-.657s.946.231 1.196.657l.001.002 3.397 5.836h7.566c.499 0 .961.276 1.201.701zm-13.362-3.09s-1.396 2.389-1.396 2.389h2.786zm3.007 5.155h-6.012l-3.371 5.797s3.371 5.797 3.371 5.797h6.012l3.371-5.797zm-12.754 0s1.777 3.048 1.777 3.048 1.771-3.048 1.771-3.048zm-.002 11.594h3.54l-1.77-3.046zm9.751 5.155s1.396-2.389 1.396-2.389h-2.786zm9.747-5.155s-1.777-3.048-1.777-3.048-1.771 3.048-1.771 3.048zm-1.767-8.546 1.777-3.048h-3.548zm-26.598-29.954c.989-.155 1.96-.328 2.921-.491l.005-.001c.133-.022.265-.045.398-.068v-7.607c0-.92-.754-1.667-1.667-1.667-.912 0-1.657.747-1.657 1.667zm0 65.407v8.166c0 .92.737 1.667 1.657 1.667s1.667-.747 1.667-1.667v-7.607c-.133-.023-.265-.046-.398-.068l-.005-.001c-.962-.163-1.923-.327-2.921-.49zm37.234-65.51v-8.064c0-.92-.737-1.667-1.657-1.667s-1.667.747-1.667 1.667v7.508c1.066.168 2.172.355 3.324.556z" transform="translate(-23.6467 -4.69667)"/></svg>

<?xml version="1.0" encoding="UTF-8" standalone="no"?>
<!DOCTYPE svg PUBLIC "-//W3C//DTD SVG 1.1//EN" "http://www.w3.org/Graphics/SVG/1.1/DTD/svg11.dtd">
<svg width="100%" height="100%" viewBox="0 0 53 91" version="1.1" xmlns="http://www.w3.org/2000/svg" xmlns:xlink="http://www.w3.org/1999/xlink" xml:space="preserve" xmlns:serif="http://www.serif.com/" style="fill-rule:evenodd;clip-rule:evenodd;stroke-linejoin:round;stroke-miterlimit:2;">
    <g transform="matrix(1,0,0,1,-23.6467,-4.69667)">
        <path d="M28.607,18.18L28.607,9.13C28.607,6.68 30.58,4.697 33.03,4.697C35.48,4.697 37.463,6.692 37.463,9.13C37.463,9.13 37.463,16.275 37.463,16.275C43.794,15.255 50.641,14.612 62.527,16.233L62.527,9.13C62.527,6.68 64.522,4.697 66.96,4.697C69.399,4.697 71.383,6.691 71.383,9.13L71.383,18.081C74.37,19.595 76.354,22.67 76.343,26.16L76.343,73.83C76.343,77.321 74.369,80.395 71.383,81.909L71.383,90.86C71.383,93.31 69.41,95.293 66.96,95.293C64.51,95.293 62.527,93.298 62.527,90.86C62.527,90.86 62.527,83.758 62.527,83.758C57.323,84.468 53.087,84.743 49.44,84.743C44.744,84.743 41.026,84.285 37.463,83.715L37.463,90.86C37.463,93.31 35.468,95.293 33.03,95.293C30.591,95.293 28.607,93.299 28.607,90.86L28.607,81.81C25.621,80.306 23.647,77.241 23.647,73.73L23.647,26.26C23.647,22.759 25.621,19.685 28.607,18.18ZM28.819,18.783L28.611,18.574L28.607,18.58C28.607,18.699 28.618,18.798 28.638,18.879C28.698,18.846 28.758,18.814 28.819,18.783ZM29.24,82.043L28.981,81.988C28.88,81.943 28.781,81.896 28.682,81.847C28.85,82.207 29.24,82.043 29.24,82.043ZM68.617,82.806C67.465,83.006 66.364,83.187 65.293,83.353L65.293,90.87C65.293,91.79 66.047,92.537 66.96,92.537C67.872,92.537 68.617,91.79 68.617,90.87L68.617,82.806ZM73.587,73.84L73.587,26.15C73.587,23.088 71.397,20.48 68.389,19.944C60.336,18.512 54.351,18.003 49.46,18.003C43.554,18.003 39.236,18.76 34.779,19.524C33.767,19.704 32.754,19.875 31.712,20.045C28.65,20.545 26.423,23.152 26.423,26.26L26.423,73.74C26.423,76.848 28.65,79.455 31.712,79.955C32.753,80.125 33.776,80.306 34.777,80.476C42.914,81.877 50.605,83.206 68.389,80.046C71.397,79.51 73.587,76.902 73.587,73.84ZM63.361,42.138C63.599,42.56 63.599,43.09 63.361,43.512C63.36,43.514 63.359,43.516 63.357,43.519L59.583,50L63.357,56.481C63.359,56.484 63.36,56.486 63.361,56.488C63.599,56.908 63.599,57.437 63.364,57.858C63.121,58.301 62.66,58.563 62.16,58.563L54.594,58.563L51.197,64.399C51.195,64.402 51.193,64.406 51.191,64.409C50.935,64.83 50.494,65.083 50,65.083C49.5,65.083 49.04,64.818 48.803,64.399L45.406,58.563L37.84,58.563C37.344,58.563 36.885,58.29 36.644,57.87C36.389,57.445 36.399,56.912 36.639,56.488C36.64,56.486 36.641,56.484 36.643,56.481L40.417,50L36.643,43.519C36.641,43.516 36.64,43.514 36.639,43.512C36.401,43.092 36.401,42.563 36.636,42.142C36.879,41.699 37.34,41.437 37.84,41.437L45.406,41.437L48.803,35.601L48.804,35.599C49.054,35.173 49.522,34.942 50,34.942C50.478,34.942 50.946,35.173 51.196,35.599L51.197,35.601L54.594,41.437L62.16,41.437C62.659,41.437 63.121,41.713 63.361,42.138ZM49.999,39.048C49.999,39.048 48.603,41.437 48.603,41.437C48.603,41.437 51.389,41.437 51.389,41.437L49.999,39.048ZM53.006,44.203L46.994,44.203L43.623,50C43.623,50 46.994,55.797 46.994,55.797L53.006,55.797L56.377,50L53.006,44.203ZM40.252,44.203C40.252,44.203 42.029,47.251 42.029,47.251C42.029,47.251 43.8,44.203 43.8,44.203L40.252,44.203ZM40.25,55.797C40.25,55.797 43.79,55.797 43.79,55.797L42.02,52.751L40.25,55.797ZM50.001,60.952C50.001,60.952 51.397,58.563 51.397,58.563C51.397,58.563 48.611,58.563 48.611,58.563L50.001,60.952ZM59.748,55.797C59.748,55.797 57.971,52.749 57.971,52.749C57.971,52.749 56.2,55.797 56.2,55.797L59.748,55.797ZM57.981,47.251L59.758,44.203C59.758,44.203 56.21,44.203 56.21,44.203L57.981,47.251ZM31.383,17.297C32.372,17.142 33.343,16.969 34.304,16.806L34.309,16.805C34.442,16.783 34.574,16.76 34.707,16.737L34.707,9.13C34.707,8.21 33.953,7.463 33.04,7.463C32.128,7.463 31.383,8.21 31.383,9.13L31.383,17.297ZM31.383,82.704L31.383,90.87C31.383,91.79 32.12,92.537 33.04,92.537C33.96,92.537 34.707,91.79 34.707,90.87C34.707,90.87 34.707,83.263 34.707,83.263C34.574,83.24 34.442,83.217 34.309,83.195L34.304,83.194C33.342,83.031 32.381,82.867 31.383,82.704ZM68.617,17.194L68.617,9.13C68.617,8.21 67.88,7.463 66.96,7.463C66.04,7.463 65.293,8.21 65.293,9.13C65.293,9.13 65.293,16.638 65.293,16.638C66.359,16.806 67.465,16.993 68.617,17.194Z"/>
    </g>
</svg>
